DevCon_2019/Icons/SVG/icon_youtube.svg

<svg height="17" viewBox="0 0 24 17" width="24" xmlns="http://www.w3.org/2000/svg"><path d="m34.55854 18.2109692c.191406.7382795.3281242 1.8593703.4101552 3.3632732l.0410156 2.0507764-.0410156 2.0507763c-.082031 1.5312462-.2187492 2.6660093-.4101552 3.4042888-.1367182.4648424-.3828114.8749977-.7382795 1.2304658s-.779295.6015613-1.2714814.7382795c-.7109356.191406-2.3789005.3281242-5.0038943.4101553l-3.732413.0410155-3.7324129-.0410155c-2.6249938-.0820311-4.2929588-.2187493-5.0038944-.4101553-.4921863-.1367182-.9160132-.3828114-1.2714813-.7382795s-.6015613-.7656234-.7382795-1.2304658c-.191406-.7382795-.3281242-1.8730426-.4101553-3.4042888l-.0410155-2.0507763c0-.6015613.0136716-1.285153.0410155-2.0507764.0820311-1.5039029.2187493-2.6249937.4101553-3.3632732.1367182-.4921863.3828114-.9160132.7382795-1.2714814.3554681-.3554681.779295-.6015612 1.2714813-.7382794.7109356-.1914061 2.3789006-.3281243 5.0038944-.4101553l3.7324129-.0410155 3.732413.0410155c2.6249938.082031 4.2929587.2187492 5.0038943.4101553.4921864.1367182.9160133.3828113 1.2714814.7382794.3554681.3554682.6015613.7792951.7382795 1.2714814zm-13.0429377 8.7773228 5.8652204-3.3632732-5.8652204-3.3222577z" fill="#eef0f2" fill-rule="evenodd" transform="translate(-12 -15)"/></svg>

<?xml version="1.0" encoding="UTF-8"?>
<svg width="24px" height="17px" viewBox="0 0 24 17" version="1.1" xmlns="http://www.w3.org/2000/svg" xmlns:xlink="http://www.w3.org/1999/xlink">
    <!-- Generator: Sketch 52.6 (67491) - http://www.bohemiancoding.com/sketch -->
    <title></title>
    <desc>Created with Sketch.</desc>
    <g id="Page-1" stroke="none" stroke-width="1" fill="none" fill-rule="evenodd">
        <g id="DESKTOP-1024PX" transform="translate(-295.000000, -6795.000000)" fill="#EEF0F2">
            <g id="FOOTER" transform="translate(0.000000, 6331.000000)">
                <g id="COLUMN-#1" transform="translate(10.000000, 63.000000)">
                    <g id="FOLLOW-US" transform="translate(0.000000, 339.000000)">
                        <g id="YOUTUBE" transform="translate(273.000000, 47.000000)">
                            <path d="M34.55854,18.2109692 C34.749946,18.9492487 34.8866642,20.0703395 34.9686952,21.5742424 L35.0097108,23.6250188 L34.9686952,25.6757951 C34.8866642,27.2070413 34.749946,28.3418044 34.55854,29.0800839 C34.4218218,29.5449263 34.1757286,29.9550816 33.8202605,30.3105497 C33.4647924,30.6660178 33.0409655,30.912111 32.5487791,31.0488292 C31.8378435,31.2402352 30.1698786,31.3769534 27.5448848,31.4589845 L23.8124718,31.5 L20.0800589,31.4589845 C17.4550651,31.3769534 15.7871001,31.2402352 15.0761645,31.0488292 C14.5839782,30.912111 14.1601513,30.6660178 13.8046832,30.3105497 C13.4492151,29.9550816 13.2031219,29.5449263 13.0664037,29.0800839 C12.8749977,28.3418044 12.7382795,27.2070413 12.6562484,25.6757951 L12.6152329,23.6250188 C12.6152329,23.0234575 12.6289045,22.3398658 12.6562484,21.5742424 C12.7382795,20.0703395 12.8749977,18.9492487 13.0664037,18.2109692 C13.2031219,17.7187829 13.4492151,17.294956 13.8046832,16.9394878 C14.1601513,16.5840197 14.5839782,16.3379266 15.0761645,16.2012084 C15.7871001,16.0098023 17.4550651,15.8730841 20.0800589,15.7910531 L23.8124718,15.7500376 L27.5448848,15.7910531 C30.1698786,15.8730841 31.8378435,16.0098023 32.5487791,16.2012084 C33.0409655,16.3379266 33.4647924,16.5840197 33.8202605,16.9394878 C34.1757286,17.294956 34.4218218,17.7187829 34.55854,18.2109692 Z M21.5156023,26.988292 L27.3808227,23.6250188 L21.5156023,20.3027611 L21.5156023,26.988292 Z" id=""></path>
                        </g>
                    </g>
                </g>
            </g>
        </g>
    </g>
</svg>
